Yaru++/mimetypes/48/text-x-install.svg

<svg height="48" viewBox="0 0 12.699375 12.699375" width="48" xmlns="http://www.w3.org/2000/svg" xmlns:xlink="http://www.w3.org/1999/xlink"><linearGradient id="a" gradientUnits="userSpaceOnUse" x1="6.350071" x2="6.350071" y1=".396856" y2="12.03795"><stop offset="0" stop-color="#fff"/><stop offset=".125" stop-color="#fff" stop-opacity=".098039"/><stop offset=".92500001" stop-color="#fff" stop-opacity=".098039"/><stop offset="1" stop-color="#fff" stop-opacity=".498039"/></linearGradient><linearGradient id="b" gradientTransform="matrix(0 -.02997086 .02997 0 -3.039509 13.625372)" gradientUnits="userSpaceOnUse" x1="459.03448" x2="35.310345" y1="419.23337" y2="207.36522"><stop offset="0" stop-color="#f2f2f2"/><stop offset="1" stop-color="#f9f9f9"/></linearGradient><path d="m4.1621982.39685574c-.5881133-.0089584-1.0513178.0135407-1.4323995.0775109-.3810845.0639688-.6929229.1839554-.9213476.4118407-.2284221.22788546-.3489841.53958336-.4123566.92082866-.0633726.3812456-.0757439.8453924-.0728601 1.4349839v3.2399529 3.241503c-.00286.5886862.00955 1.0525982.07286 1.4334342.063372.381246.1839345.692944.4123566.920829.2284247.227885.5402631.347873.9213476.411841.3810844.06397.8442174.07751 1.4323995.07751h4.3757443c.5881817 0 1.0510747-.01352 1.4313677-.07751.3802929-.064.6911789-.18439.9187599-.412357.227584-.227967.347434-.539443.411325-.920313.06389-.380868.07751-.844073.07751-1.4334342v-3.241503-3.1748437l-2.8389625-2.84361416z" opacity=".1"/><path d="m4.1623596.39685574c-2.334616 0-2.5858176.2397933-2.5743749 2.57913186v3.2414149 3.2414153c-.011456 2.3393392.2397589 2.5791322 2.5743749 2.5791322h4.3757787c2.3346157 0 2.5743747-.239767 2.5743747-2.5791322v-3.2414153l-.000177-3.1748438-2.6457031-2.64570296z" fill="none" opacity=".2" stroke="#000" stroke-width=".529141"/><path d="m4.1623596.39685574c-2.334616 0-2.5858176.2397933-2.5743749 2.57913186v3.2414149 3.2414153c-.011456 2.3393392.2397589 2.5791322 2.5743749 2.5791322h4.3757787c2.3346157 0 2.5743747-.239767 2.5743747-2.5791322v-3.2414153l-.000177-3.1748438-2.6457031-2.64570296z" fill="url(#b)"/><path d="m4.7627226 4.1008334v.2645703 1.8519922h-1.2985641l.1839584.3798029c.2371635.489426 1.1351813 2.285295 2.4849979 4.2284742l.2170323.312627.2170297-.312627c1.349544-1.9429132 2.2473184-3.7378972 2.4844794-4.2274402l.183961-.3798035h-1.2980482v-2.1175959zm.5291406.5291406h2.1165625v2.1175958h.9668193c-.3149683.629793-.9994355 1.901515-2.0251005 3.4285632-1.0259376-1.5273972-1.7105768-2.7996592-2.0256165-3.4295962h.9673352z" fill="#999"/><path d="m1.5878048 6.2174025v3.2415033c-.011456 2.3393382.2397774 2.5790442 2.5743934 2.5790442h4.3757443c2.3346155 0 2.5743935-.239679 2.5743935-2.5790442v-3.2415033z" fill="#fff" opacity=".2"/><path d="m6.3500704.39685574v11.64109426h2.1878721c2.3346155 0 2.5743935-.239679 2.5743935-2.5790442v-3.2415033-3.1748438l-2.6457031-2.64570296z" fill="#fff" opacity=".1"/><path d="m4.1621982.39685574c-2.334616 0-2.5858361.2397052-2.5743934 2.57904376v3.241503 3.2415033c-.011456 2.3393382.2397774 2.5790442 2.5743934 2.5790442h4.3757443c2.3346155 0 2.5743935-.239679 2.5743935-2.5790442v-3.2415033-3.1748438h-.26457v3.1748438 3.2415033c0 .5803222-.01624 1.0240722-.07027 1.3461042-.05402.322035-.139871.509123-.264055.633524-.124184.124388-.310701.2105-.6319708.264571-.321273.05406-.764397.07028-1.3435225.07028h-4.3757495c-.5791259 0-1.0227997-.01619-1.3450728-.07028-.3222705-.054102-.5102953-.14009-.6350719-.264571-.124774-.124488-.2105874-.311351-.2640518-.633005-.053467-.321654-.0684681-.765512-.0656266-1.3455902v-.000529-3.2420073-3.2420198-.0005291c-.00283-.5800778.01217-1.0239334.065627-1.3455882.053467-.3216548.1392778-.5085247.2640518-.63300506.124774-.1244803.31332-.2104736.6355904-.2645703.3222705-.0540718.7654284-.070264 1.3445543-.070264h4.3044347v-.2645703z" fill="url(#a)" opacity=".4"/><path d="m11.112336 3.3071291v-.2645704l-2.6457031-2.64570296h-.2645703v1.11359056.042668.022917c0 1.5059289.201592 1.7381397 1.7109766 1.7307589z" opacity=".2"/><path d="m11.112336 3.0422201-2.6457031-2.64536496v.98127586.042668.022917c0 1.5059289.069402 1.6058846 1.5787861 1.5985039z" fill="#faf8f6"/></svg>

<?xml version="1.0" encoding="UTF-8" standalone="no"?>
<svg
   xmlns:dc="http://purl.org/dc/elements/1.1/"
   xmlns:cc="http://creativecommons.org/ns#"
   xmlns:rdf="http://www.w3.org/1999/02/22-rdf-syntax-ns#"
   xmlns:svg="http://www.w3.org/2000/svg"
   xmlns="http://www.w3.org/2000/svg"
   xmlns:xlink="http://www.w3.org/1999/xlink"
   xmlns:sodipodi="http://sodipodi.sourceforge.net/DTD/sodipodi-0.dtd"
   xmlns:inkscape="http://www.inkscape.org/namespaces/inkscape"
   height="48"
   viewBox="0 0 12.699375 12.699375"
   width="48"
   version="1.1"
   id="svg33"
   sodipodi:docname="text-x-install.svg"
   inkscape:version="0.92.5 (2060ec1f9f, 2020-04-08)">
  <metadata
     id="metadata39">
    <rdf:RDF>
      <cc:Work
         rdf:about="">
        <dc:format>image/svg+xml</dc:format>
        <dc:type
           rdf:resource="http://purl.org/dc/dcmitype/StillImage" />
      </cc:Work>
    </rdf:RDF>
  </metadata>
  <defs
     id="defs37">
    <linearGradient
       gradientTransform="matrix(0.26457031,0,0,0.26457031,-84.662116,-16.006503)"
       inkscape:collect="always"
       xlink:href="#linearGradient927"
       id="linearGradient1004"
       x1="344"
       y1="62"
       x2="344"
       y2="106"
       gradientUnits="userSpaceOnUse" />
    <linearGradient
       inkscape:collect="always"
       id="linearGradient927">
      <stop
         style="stop-color:#ffffff;stop-opacity:1;"
         offset="0"
         id="stop923" />
      <stop
         id="stop933"
         offset="0.125"
         style="stop-color:#ffffff;stop-opacity:0.09803922" />
      <stop
         id="stop931"
         offset="0.92500001"
         style="stop-color:#ffffff;stop-opacity:0.09803922" />
      <stop
         style="stop-color:#ffffff;stop-opacity:0.49803922"
         offset="1"
         id="stop925" />
    </linearGradient>
    <linearGradient
       inkscape:collect="always"
       xlink:href="#linearGradient4338"
       id="linearGradient1024"
       gradientUnits="userSpaceOnUse"
       gradientTransform="matrix(0,-0.02997086,0.02997,0,-3.0395088,13.625372)"
       x1="459.03448"
       y1="419.23337"
       x2="35.310345"
       y2="207.36522" />
    <linearGradient
       inkscape:collect="always"
       id="linearGradient4338">
      <stop
         style="stop-color:#f2f2f2;stop-opacity:1"
         offset="0"
         id="stop4340" />
      <stop
         style="stop-color:#f9f9f9;stop-opacity:1"
         offset="1"
         id="stop4342" />
    </linearGradient>
  </defs>
  <sodipodi:namedview
     pagecolor="#ffffff"
     bordercolor="#666666"
     borderopacity="1"
     objecttolerance="10"
     gridtolerance="10"
     guidetolerance="10"
     inkscape:pageopacity="0"
     inkscape:pageshadow="2"
     inkscape:window-width="834"
     inkscape:window-height="480"
     id="namedview35"
     showgrid="false"
     inkscape:zoom="4.9166667"
     inkscape:cx="24"
     inkscape:cy="24"
     inkscape:window-x="0"
     inkscape:window-y="28"
     inkscape:window-maximized="0"
     inkscape:current-layer="svg33" />
  <linearGradient
     id="a"
     gradientUnits="userSpaceOnUse"
     x1="344"
     x2="344"
     y1="62"
     y2="106">
    <stop
       offset="0"
       stop-color="#fff"
       id="stop2" />
    <stop
       offset=".125"
       stop-color="#fff"
       stop-opacity=".098039"
       id="stop4" />
    <stop
       offset=".92500001"
       stop-color="#fff"
       stop-opacity=".098039"
       id="stop6" />
    <stop
       offset="1"
       stop-color="#fff"
       stop-opacity=".498039"
       id="stop8" />
  </linearGradient>
  <clipPath
     id="b">
    <path
       d="m335.73108 62c-8.82418 0-9.77365.90635-9.7304 9.74838v12.25162 12.25162c-.0433 8.84203.90622 9.74838 9.7304 9.74838h16.53919c8.82418 0 9.7304-.90625 9.7304-9.74838v-12.25162-12.25162c0-8.84213-.90622-9.74838-9.7304-9.74838z"
       id="path11" />
  </clipPath>
  <linearGradient
     id="c"
     gradientTransform="matrix(0 -.02997086 .02997 0 -3.039509 13.625372)"
     gradientUnits="userSpaceOnUse"
     x1="459.03448"
     x2="35.310345"
     y1="419.23337"
     y2="207.36522">
    <stop
       offset="0"
       stop-color="#f2f2f2"
       id="stop14" />
    <stop
       offset="1"
       stop-color="#f9f9f9"
       id="stop16" />
  </linearGradient>
  <path
     style="color:#000000;font-style:normal;font-variant:normal;font-weight:normal;font-stretch:normal;font-size:medium;line-height:normal;font-family:sans-serif;font-variant-ligatures:normal;font-variant-position:normal;font-variant-caps:normal;font-variant-numeric:normal;font-variant-alternates:normal;font-feature-settings:normal;text-indent:0;text-align:start;text-decoration:none;text-decoration-line:none;text-decoration-style:solid;text-decoration-color:#000000;letter-spacing:normal;word-spacing:normal;text-transform:none;writing-mode:lr-tb;direction:ltr;text-orientation:mixed;dominant-baseline:auto;baseline-shift:baseline;text-anchor:start;white-space:normal;shape-padding:0;clip-rule:nonzero;display:inline;overflow:visible;visibility:visible;opacity:0.1;isolation:auto;mix-blend-mode:normal;color-interpolation:sRGB;color-interpolation-filters:linearRGB;solid-color:#000000;solid-opacity:1;vector-effect:none;fill:#000000;fill-opacity:1;fill-rule:nonzero;stroke:none;stroke-width:0.52914065;stroke-linecap:butt;stroke-linejoin:miter;stroke-miterlimit:4;stroke-dasharray:none;stroke-dashoffset:0;stroke-opacity:1;marker:none;color-rendering:auto;image-rendering:auto;shape-rendering:auto;text-rendering:auto;enable-background:accumulate"
     d="M 4.1621982,0.39685574 C 3.5740849,0.38789734 3.1108804,0.41039644 2.7297987,0.47436664 2.3487142,0.53833544 2.0368758,0.65832204 1.8084511,0.88620734 1.580029,1.1140928 1.459467,1.4257907 1.3960945,1.807036 1.3327219,2.1882816 1.3203506,2.6524284 1.3232344,3.2420199 v 3.2399529 3.241503 c -0.00286,0.5886862 0.00955,1.0525982 0.07286,1.4334342 0.063372,0.381246 0.1839345,0.692944 0.4123566,0.920829 0.2284247,0.227885 0.5402631,0.347873 0.9213476,0.411841 0.3810844,0.06397 0.8442174,0.07751 1.4323995,0.07751 h 4.3757443 c 0.5881817,0 1.0510747,-0.01352 1.4313677,-0.07751 0.3802929,-0.064 0.6911789,-0.18439 0.9187599,-0.412357 0.227584,-0.227967 0.347434,-0.539443 0.411325,-0.920313 0.06389,-0.380868 0.07751,-0.844073 0.07751,-1.4334342 V 6.4819728 3.3071291 L 8.5379425,0.46351494 Z"
     id="path1020"
     inkscape:connector-curvature="0"
     sodipodi:nodetypes="sccsccccccsscccscccs" />
  <path
     style="color:#000000;display:inline;overflow:visible;visibility:visible;opacity:0.2;fill:none;fill-opacity:1;fill-rule:nonzero;stroke:#000000;stroke-width:0.52914065;stroke-miterlimit:4;stroke-dasharray:none;stroke-opacity:1;marker:none;enable-background:accumulate"
     d="m 4.1623596,0.39685574 c -2.334616,0 -2.5858176,0.2397933 -2.5743749,2.57913186 V 6.2174025 9.4588178 C 1.5765287,11.798157 1.8277436,12.03795 4.1623596,12.03795 h 4.3757787 c 2.3346157,0 2.5743747,-0.239767 2.5743747,-2.5791322 V 6.2174025 L 11.112336,3.0425587 8.4666329,0.39685574 Z"
     id="path958"
     inkscape:connector-curvature="0"
     sodipodi:nodetypes="scccssscccs" />
  <path
     style="color:#000000;display:inline;overflow:visible;visibility:visible;fill:url(#linearGradient1024);fill-opacity:1;fill-rule:nonzero;stroke:none;stroke-width:0.26457033;marker:none;enable-background:accumulate"
     d="m 4.1623596,0.39685574 c -2.334616,0 -2.5858176,0.2397933 -2.5743749,2.57913186 V 6.2174025 9.4588178 C 1.5765287,11.798157 1.8277436,12.03795 4.1623596,12.03795 h 4.3757787 c 2.3346157,0 2.5743747,-0.239767 2.5743747,-2.5791322 V 6.2174025 L 11.112336,3.0425587 8.4666329,0.39685574 Z"
     id="path964"
     inkscape:connector-curvature="0"
     sodipodi:nodetypes="scccssscccs" />
  <path
     style="color:#000000;font-style:normal;font-variant:normal;font-weight:normal;font-stretch:normal;font-size:medium;line-height:normal;font-family:sans-serif;font-variant-ligatures:normal;font-variant-position:normal;font-variant-caps:normal;font-variant-numeric:normal;font-variant-alternates:normal;font-feature-settings:normal;text-indent:0;text-align:start;text-decoration:none;text-decoration-line:none;text-decoration-style:solid;text-decoration-color:#000000;letter-spacing:normal;word-spacing:normal;text-transform:none;writing-mode:lr-tb;direction:ltr;text-orientation:mixed;dominant-baseline:auto;baseline-shift:baseline;text-anchor:start;white-space:normal;shape-padding:0;clip-rule:nonzero;display:inline;overflow:visible;visibility:visible;opacity:1;isolation:auto;mix-blend-mode:normal;color-interpolation:sRGB;color-interpolation-filters:linearRGB;solid-color:#000000;solid-opacity:1;vector-effect:none;fill:#999999;fill-opacity:1;fill-rule:nonzero;stroke:none;stroke-width:0.52903605;stroke-linecap:butt;stroke-linejoin:miter;stroke-miterlimit:4;stroke-dasharray:none;stroke-dashoffset:0;stroke-opacity:1;marker:none;color-rendering:auto;image-rendering:auto;shape-rendering:auto;text-rendering:auto;enable-background:accumulate"
     d="M 4.7627226,4.1008334 V 4.3654037 6.2173959 H 3.4641585 l 0.1839584,0.3798029 c 0.2371635,0.489426 1.1351813,2.285295 2.4849979,4.2284742 L 6.3501471,11.1383 6.5671768,10.825673 C 7.9167208,8.8827598 8.8144952,7.0877758 9.0516562,6.5982328 L 9.2356172,6.2184293 H 7.937569 V 4.1008334 Z M 5.2918632,4.629974 H 7.4084257 V 6.7475698 H 8.375245 C 8.0602767,7.3773628 7.3758095,8.6490848 6.3501445,10.176133 5.3242069,8.6487358 4.6395677,7.3764738 4.324528,6.7465368 h 0.9673352 z"
     id="path1015-0"
     inkscape:connector-curvature="0" />
  <path
     style="color:#000000;display:inline;overflow:visible;visibility:visible;opacity:0.2;fill:#ffffff;fill-opacity:1;fill-rule:nonzero;stroke:none;stroke-width:0.26457033;marker:none;enable-background:accumulate"
     d="M 1.5878048,6.2174025 V 9.4589058 C 1.5763488,11.798244 1.8275822,12.03795 4.1621982,12.03795 h 4.3757443 c 2.3346155,0 2.5743935,-0.239679 2.5743935,-2.5790442 V 6.2174025 Z"
     id="path1006"
     inkscape:connector-curvature="0" />
  <path
     style="color:#000000;display:inline;overflow:visible;visibility:visible;opacity:0.1;fill:#ffffff;fill-opacity:1;fill-rule:nonzero;stroke:none;stroke-width:0.26457033;marker:none;enable-background:accumulate"
     d="M 6.3500704,0.39685574 V 12.03795 h 2.1878721 c 2.3346155,0 2.5743935,-0.239679 2.5743935,-2.5790442 V 6.2174025 3.0425587 L 8.4666329,0.39685574 Z"
     id="path1013"
     inkscape:connector-curvature="0"
     sodipodi:nodetypes="ccsscccc" />
  <path
     style="color:#000000;font-style:normal;font-variant:normal;font-weight:normal;font-stretch:normal;font-size:medium;line-height:normal;font-family:sans-serif;font-variant-ligatures:normal;font-variant-position:normal;font-variant-caps:normal;font-variant-numeric:normal;font-variant-alternates:normal;font-feature-settings:normal;text-indent:0;text-align:start;text-decoration:none;text-decoration-line:none;text-decoration-style:solid;text-decoration-color:#000000;letter-spacing:normal;word-spacing:normal;text-transform:none;writing-mode:lr-tb;direction:ltr;text-orientation:mixed;dominant-baseline:auto;baseline-shift:baseline;text-anchor:start;white-space:normal;shape-padding:0;clip-rule:nonzero;display:inline;overflow:visible;visibility:visible;opacity:0.4;isolation:auto;mix-blend-mode:normal;color-interpolation:sRGB;color-interpolation-filters:linearRGB;solid-color:#000000;solid-opacity:1;vector-effect:none;fill:url(#linearGradient1004);fill-opacity:1;fill-rule:nonzero;stroke:none;stroke-width:0.52914065;stroke-linecap:butt;stroke-linejoin:miter;stroke-miterlimit:4;stroke-dasharray:none;stroke-dashoffset:0;stroke-opacity:1;marker:none;color-rendering:auto;image-rendering:auto;shape-rendering:auto;text-rendering:auto;enable-background:accumulate"
     clip-path="none"
     d="m 4.1621982,0.39685574 c -2.334616,0 -2.5858361,0.2397052 -2.5743934,2.57904376 v 3.241503 3.2415033 C 1.5763488,11.798244 1.8275822,12.03795 4.1621982,12.03795 h 4.3757443 c 2.3346155,0 2.5743935,-0.239679 2.5743935,-2.5790442 V 6.2174025 3.0425587 h -0.26457 v 3.1748438 3.2415033 c 0,0.5803222 -0.01624,1.0240722 -0.07027,1.3461042 -0.05402,0.322035 -0.139871,0.509123 -0.264055,0.633524 -0.124184,0.124388 -0.310701,0.2105 -0.6319708,0.264571 -0.321273,0.05406 -0.764397,0.07028 -1.3435225,0.07028 H 4.1621982 c -0.5791259,0 -1.0227997,-0.01619 -1.3450728,-0.07028 C 2.4948549,11.649003 2.3068301,11.563015 2.1820535,11.438534 2.0572795,11.314046 1.9714661,11.127183 1.9180017,10.805529 1.8645347,10.483875 1.8495336,10.040017 1.8523751,9.4599388 V 9.4594098 6.2174025 2.9753827 2.9748536 c -0.00283,-0.5800778 0.01217,-1.0239334 0.065627,-1.3455882 0.053467,-0.3216548 0.1392778,-0.5085247 0.2640518,-0.63300506 0.124774,-0.1244803 0.31332,-0.2104736 0.6355904,-0.2645703 0.3222705,-0.0540718 0.7654284,-0.070264 1.3445543,-0.070264 h 4.3044347 v -0.2645703 z"
     id="path990"
     inkscape:connector-curvature="0" />
  <path
     inkscape:connector-curvature="0"
     style="color:#000000;display:inline;overflow:visible;visibility:visible;opacity:0.2;fill:#000000;fill-opacity:1;fill-rule:nonzero;stroke:none;stroke-width:0.06614863;marker:none;enable-background:accumulate"
     d="M 11.112336,3.3071291 V 3.0425587 L 8.4666329,0.39685574 H 8.2020626 v 1.11359056 0.042668 0.022917 c 0,1.5059289 0.201592,1.7381397 1.7109766,1.7307589 z"
     id="rect4158-0-3-62-2"
     sodipodi:nodetypes="ccccccscc" />
  <path
     inkscape:connector-curvature="0"
     style="color:#000000;display:inline;overflow:visible;visibility:visible;fill:#faf8f6;fill-opacity:1;fill-rule:nonzero;stroke:none;stroke-width:0.06614863;marker:none;enable-background:accumulate"
     d="M 11.112336,3.0422201 8.4666329,0.39685514 V 1.378131 1.420799 1.443716 c 0,1.5059289 0.069402,1.6058846 1.5787861,1.5985039 z"
     id="rect4158-0-3-62"
     sodipodi:nodetypes="ccccscc" />
</svg>
